Yaru++/status/48/software-update-available.svg

<svg height="48" viewBox="0 0 12.7 12.7" width="48" xmlns="http://www.w3.org/2000/svg" xmlns:xlink="http://www.w3.org/1999/xlink"><linearGradient id="a" gradientTransform="matrix(.06326993 0 0 .0632699 .276088 .143796)" gradientUnits="userSpaceOnUse" x1="96" x2="96" y1="4.000006" y2="188"><stop offset="0" stop-color="#fff"/><stop offset=".125" stop-color="#fff" stop-opacity=".098039"/><stop offset=".92500001" stop-color="#fff" stop-opacity=".098039"/><stop offset="1" stop-color="#fff" stop-opacity=".498039"/></linearGradient><filter id="b" color-interpolation-filters="sRGB" height="1.019945" width="1.030125" x="-.015062" y="-.009973"><feGaussianBlur stdDeviation=".09265347"/></filter><linearGradient id="c" gradientTransform="matrix(.25000001 0 0 .2500001 -12.567706 -74.249996)" gradientUnits="userSpaceOnUse" x1="13.735326" x2="38.099998" y1="249.69423" y2="292.76666"><stop offset="0" stop-color="#319741"/><stop offset="1" stop-color="#0e8420"/></linearGradient><circle cx="-6.35" cy="-6.482292" opacity=".1" r="6.085417" transform="scale(-1)"/><circle cx="-6.35" cy="-6.217704" fill="url(#c)" r="5.953125" transform="scale(-1)"/><path d="m.55786887 6.7468809a5.8208331 5.8208307 0 0 0 5.79202543 5.2916631 5.8208331 5.8208307 0 0 0 5.7943487-5.2916631z" fill="#fff" opacity=".1"/><g enable-background="new" transform="matrix(.26458333 0 0 .26458333 -84.859881 -16.007297)"><path d="m344.81833 72.090831c3.94595 5.644425 5.96867 11.583914 7.29357 14.258218h-4.47524v8.03988h-5.63666v-8.03988h-4.65139c1.32433-2.674143 3.52376-8.613739 7.46972-14.258218z" filter="url(#b)" opacity=".1"/><path d="m344.81833 71.741782c3.94595 5.644425 5.96867 11.583914 7.29357 14.258218h-4.47524v8.03988h-5.63666v-8.03988h-4.65139c1.32433-2.674143 3.52376-8.613739 7.46972-14.258218z" fill="#fff"/></g><circle cx="6.35" cy="6.217704" r="5.953125" style="opacity:.4;fill:none;stroke:#000;stroke-width:.264583;stroke-linejoin:round;stroke-dashoffset:6.6"/><path d="m6.3500002.39687545a5.8208333 5.8208307 0 0 0 -5.82083333 5.82083245 5.8208333 5.8208307 0 0 0 5.82083333 5.8208281 5.8208333 5.8208307 0 0 0 5.8208338-5.8208281 5.8208333 5.8208307 0 0 0 -5.8208338-5.82083245zm0 .2530824a5.5677536 5.5677512 0 0 1 5.5677548 5.56775005 5.5677536 5.5677512 0 0 1 -5.5677548 5.5677491 5.5677536 5.5677512 0 0 1 -5.56775408-5.5677491 5.5677536 5.5677512 0 0 1 5.56775408-5.56775005z" fill="url(#a)"/></svg>

<?xml version="1.0" encoding="UTF-8" standalone="no"?>
<svg
   xmlns:dc="http://purl.org/dc/elements/1.1/"
   xmlns:cc="http://creativecommons.org/ns#"
   xmlns:rdf="http://www.w3.org/1999/02/22-rdf-syntax-ns#"
   xmlns:svg="http://www.w3.org/2000/svg"
   xmlns="http://www.w3.org/2000/svg"
   xmlns:xlink="http://www.w3.org/1999/xlink"
   xmlns:sodipodi="http://sodipodi.sourceforge.net/DTD/sodipodi-0.dtd"
   xmlns:inkscape="http://www.inkscape.org/namespaces/inkscape"
   height="48"
   viewBox="0 0 12.7 12.7"
   width="48"
   version="1.1"
   id="svg36"
   sodipodi:docname="software-update-available.svg"
   inkscape:version="0.92.4 (5da689c313, 2019-01-14)">
  <metadata
     id="metadata42">
    <rdf:RDF>
      <cc:Work
         rdf:about="">
        <dc:format>image/svg+xml</dc:format>
        <dc:type
           rdf:resource="http://purl.org/dc/dcmitype/StillImage" />
      </cc:Work>
    </rdf:RDF>
  </metadata>
  <defs
     id="defs40">
    <linearGradient
       inkscape:collect="always"
       xlink:href="#linearGradient927"
       id="linearGradient8590"
       gradientUnits="userSpaceOnUse"
       gradientTransform="matrix(0.06326993,0,0,0.0632699,0.27608762,0.14379565)"
       x1="96"
       y1="4.0000062"
       x2="96"
       y2="188" />
    <linearGradient
       inkscape:collect="always"
       id="linearGradient927">
      <stop
         style="stop-color:#ffffff;stop-opacity:1;"
         offset="0"
         id="stop923" />
      <stop
         id="stop933"
         offset="0.125"
         style="stop-color:#ffffff;stop-opacity:0.09803922" />
      <stop
         id="stop931"
         offset="0.92500001"
         style="stop-color:#ffffff;stop-opacity:0.09803922" />
      <stop
         style="stop-color:#ffffff;stop-opacity:0.49803922"
         offset="1"
         id="stop925" />
    </linearGradient>
    <filter
       inkscape:collect="always"
       style="color-interpolation-filters:sRGB"
       id="filter10952"
       x="-0.015062248"
       width="1.0301245"
       y="-0.0099725248"
       height="1.019945">
      <feGaussianBlur
         inkscape:collect="always"
         stdDeviation="0.09265347"
         id="feGaussianBlur10954" />
    </filter>
    <linearGradient
       inkscape:collect="always"
       xlink:href="#linearGradient10935"
       id="linearGradient8588"
       gradientUnits="userSpaceOnUse"
       gradientTransform="matrix(0.25000001,0,0,0.2500001,-12.567706,-74.249996)"
       x1="13.735326"
       y1="249.69423"
       x2="38.099998"
       y2="292.76666" />
    <linearGradient
       id="linearGradient10935">
      <stop
         id="stop10931"
         offset="0"
         style="stop-color:#319741;stop-opacity:1" />
      <stop
         id="stop10933"
         offset="1"
         style="stop-color:#0e8420;stop-opacity:1" />
    </linearGradient>
  </defs>
  <sodipodi:namedview
     pagecolor="#ffffff"
     bordercolor="#666666"
     borderopacity="1"
     objecttolerance="10"
     gridtolerance="10"
     guidetolerance="10"
     inkscape:pageopacity="0"
     inkscape:pageshadow="2"
     inkscape:window-width="956"
     inkscape:window-height="565"
     id="namedview38"
     showgrid="false"
     inkscape:zoom="4.9166667"
     inkscape:cx="24"
     inkscape:cy="24"
     inkscape:window-x="0"
     inkscape:window-y="27"
     inkscape:window-maximized="0"
     inkscape:current-layer="svg36" />
  <linearGradient
     id="a"
     gradientTransform="matrix(-.26458333 0 0 .26458333 50.799999 221.99061)"
     gradientUnits="userSpaceOnUse"
     x1="168"
     x2="168"
     y1="239"
     y2="279">
    <stop
       offset="0"
       stop-color="#fff"
       id="stop2" />
    <stop
       offset=".125"
       stop-color="#fff"
       stop-opacity=".098039"
       id="stop4" />
    <stop
       offset=".92500001"
       stop-color="#fff"
       stop-opacity=".098039"
       id="stop6" />
    <stop
       offset="1"
       stop-color="#fff"
       stop-opacity=".498039"
       id="stop8" />
  </linearGradient>
  <linearGradient
     id="b"
     gradientTransform="matrix(0 .26458333 -.26458333 0 28.575 199.50103)"
     gradientUnits="userSpaceOnUse"
     x1="320.5"
     x2="367.5"
     y1="84"
     y2="84">
    <stop
       offset="0"
       stop-color="#2f9b3f"
       id="stop11" />
    <stop
       offset="1"
       stop-color="#3eb34f"
       id="stop13" />
  </linearGradient>
  <circle
     style="display:inline;opacity:0.1;fill:#000000;fill-opacity:1;stroke:none;stroke-width:0.51709557;stroke-linecap:round;stroke-linejoin:round;stroke-miterlimit:4;stroke-dasharray:none;stroke-opacity:1;enable-background:new"
     id="path9498-0-0"
     cx="-6.3499999"
     cy="-6.4822917"
     transform="scale(-1)"
     r="6.0854168" />
  <circle
     style="display:inline;opacity:1;fill:url(#linearGradient8588);fill-opacity:1;stroke:none;stroke-width:0.49461308;stroke-linecap:round;stroke-linejoin:round;stroke-miterlimit:4;stroke-dasharray:none;stroke-opacity:1;enable-background:new"
     id="path9498-6"
     cx="-6.3499999"
     cy="-6.2177043"
     r="5.953125"
     transform="scale(-1)" />
  <path
     style="display:inline;opacity:0.1;fill:#ffffff;fill-opacity:1;stroke:none;stroke-width:0.52916664;stroke-linecap:round;stroke-linejoin:round;stroke-miterlimit:4;stroke-dasharray:none;stroke-opacity:1;enable-background:new"
     d="M 0.55786887,6.7468809 A 5.8208331,5.8208307 0 0 0 6.3498943,12.038544 5.8208331,5.8208307 0 0 0 12.144243,6.7468809 Z"
     id="rect12119-7"
     inkscape:connector-curvature="0" />
  <g
     style="display:inline;enable-background:new"
     id="g10977"
     transform="matrix(0.26458333,0,0,0.26458333,-84.859881,-16.007297)">
    <path
       sodipodi:nodetypes="cccccccc"
       inkscape:connector-curvature="0"
       style="color:#000000;font-style:normal;font-variant:normal;font-weight:normal;font-stretch:normal;font-size:medium;line-height:normal;font-family:sans-serif;font-variant-ligatures:normal;font-variant-position:normal;font-variant-caps:normal;font-variant-numeric:normal;font-variant-alternates:normal;font-feature-settings:normal;text-indent:0;text-align:start;text-decoration:none;text-decoration-line:none;text-decoration-style:solid;text-decoration-color:#000000;letter-spacing:normal;word-spacing:normal;text-transform:none;writing-mode:lr-tb;direction:ltr;text-orientation:mixed;dominant-baseline:auto;baseline-shift:baseline;text-anchor:start;white-space:normal;shape-padding:0;clip-rule:nonzero;display:inline;overflow:visible;visibility:visible;opacity:0.1;isolation:auto;mix-blend-mode:normal;color-interpolation:sRGB;color-interpolation-filters:linearRGB;solid-color:#000000;solid-opacity:1;vector-effect:none;fill:#000000;fill-opacity:1;fill-rule:nonzero;stroke:none;stroke-width:1.37413836;stroke-linecap:butt;stroke-linejoin:miter;stroke-miterlimit:4;stroke-dasharray:none;stroke-dashoffset:0;stroke-opacity:1;marker:none;filter:url(#filter10952);color-rendering:auto;image-rendering:auto;shape-rendering:auto;text-rendering:auto;enable-background:accumulate"
       d="m 344.81833,72.090831 c 3.94595,5.644425 5.96867,11.583914 7.29357,14.258218 h -4.47524 v 8.03988 H 342 v -8.03988 h -4.65139 c 1.32433,-2.674143 3.52376,-8.613739 7.46972,-14.258218 z"
       id="path10965" />
    <path
       sodipodi:nodetypes="cccccccc"
       inkscape:connector-curvature="0"
       style="color:#000000;font-style:normal;font-variant:normal;font-weight:normal;font-stretch:normal;font-size:medium;line-height:normal;font-family:sans-serif;font-variant-ligatures:normal;font-variant-position:normal;font-variant-caps:normal;font-variant-numeric:normal;font-variant-alternates:normal;font-feature-settings:normal;text-indent:0;text-align:start;text-decoration:none;text-decoration-line:none;text-decoration-style:solid;text-decoration-color:#000000;letter-spacing:normal;word-spacing:normal;text-transform:none;writing-mode:lr-tb;direction:ltr;text-orientation:mixed;dominant-baseline:auto;baseline-shift:baseline;text-anchor:start;white-space:normal;shape-padding:0;clip-rule:nonzero;display:inline;overflow:visible;visibility:visible;opacity:1;isolation:auto;mix-blend-mode:normal;color-interpolation:sRGB;color-interpolation-filters:linearRGB;solid-color:#000000;solid-opacity:1;vector-effect:none;fill:#ffffff;fill-opacity:1;fill-rule:nonzero;stroke:none;stroke-width:1.37413836;stroke-linecap:butt;stroke-linejoin:miter;stroke-miterlimit:4;stroke-dasharray:none;stroke-dashoffset:0;stroke-opacity:1;marker:none;color-rendering:auto;image-rendering:auto;shape-rendering:auto;text-rendering:auto;enable-background:accumulate"
       d="M 344.81833,71.741782 C 348.76428,77.386207 350.787,83.325696 352.1119,86 h -4.47524 v 8.03988 H 342 V 86 h -4.65139 c 1.32433,-2.674143 3.52376,-8.613739 7.46972,-14.258218 z"
       id="path10946" />
  </g>
  <circle
     style="display:inline;opacity:0.4;vector-effect:none;fill:none;fill-opacity:1;stroke:#000000;stroke-width:0.26458332;stroke-linecap:butt;stroke-linejoin:round;stroke-miterlimit:4;stroke-dasharray:none;stroke-dashoffset:6.5999999;stroke-opacity:1;enable-background:new"
     id="path1389-3"
     cx="6.3499999"
     cy="6.2177043"
     r="5.953125" />
  <path
     style="display:inline;opacity:1;fill:url(#linearGradient8590);fill-opacity:1;stroke:none;stroke-width:0.49461302;stroke-linecap:round;stroke-linejoin:round;stroke-miterlimit:4;stroke-dasharray:none;stroke-opacity:1;enable-background:new"
     d="M 6.3500002,0.39687545 A 5.8208333,5.8208307 0 0 0 0.52916687,6.2177079 5.8208333,5.8208307 0 0 0 6.3500002,12.038536 5.8208333,5.8208307 0 0 0 12.170834,6.2177079 5.8208333,5.8208307 0 0 0 6.3500002,0.39687545 Z m 0,0.2530824 A 5.5677536,5.5677512 0 0 1 11.917755,6.2177079 5.5677536,5.5677512 0 0 1 6.3500002,11.785457 5.5677536,5.5677512 0 0 1 0.78224612,6.2177079 5.5677536,5.5677512 0 0 1 6.3500002,0.64995785 Z"
     id="path9498-1-6"
     inkscape:connector-curvature="0" />
</svg>
